icons/svgs/plus-circle-solid.svg

<svg width="24" height="24" viewBox="0 0 24 24" fill="none" xmlns="http://www.w3.org/2000/svg">
<path d="M12 22C8.40625 22 5.125 20.125 3.32812 17C1.53125 13.9141 1.53125 10.125 3.32812 7C5.125 3.91406 8.40625 2 12 2C15.5547 2 18.8359 3.91406 20.6328 7C22.4297 10.125 22.4297 13.9141 20.6328 17C18.8359 20.125 15.5547 22 12 22ZM11.0625 15.4375C11.0625 15.9844 11.4531 16.375 12 16.375C12.5078 16.375 12.9375 15.9844 12.9375 15.4375V12.9375H15.4375C15.9453 12.9375 16.375 12.5469 16.375 12C16.375 11.4922 15.9453 11.0625 15.4375 11.0625H12.9375V8.5625C12.9375 8.05469 12.5078 7.625 12 7.625C11.4531 7.625 11.0625 8.05469 11.0625 8.5625V11.0625H8.5625C8.01562 11.0625 7.625 11.4922 7.625 12C7.625 12.5469 8.01562 12.9375 8.5625 12.9375H11.0625V15.4375Z" fill="black"/>
</svg>

<svg xmlns="http://www.w3.org/2000/svg" width="24" height="24" fill="currentColor" class="icon-plus-circle-solid" viewBox="0 0 24 24">
  <mask id="a" width="21" height="20" x="1" y="2" maskUnits="userSpaceOnUse" style="mask-type:alpha">
    <path d="M12 22c-3.594 0-6.875-1.875-8.672-5-1.797-3.086-1.797-6.875 0-10C5.125 3.914 8.406 2 12 2c3.555 0 6.836 1.914 8.633 5 1.797 3.125 1.797 6.914 0 10A9.93 9.93 0 0 1 12 22m-.937-6.562c0 .546.39.937.937.937.508 0 .938-.39.938-.937v-2.5h2.5a.926.926 0 0 0 .937-.938.95.95 0 0 0-.937-.937h-2.5v-2.5A.95.95 0 0 0 12 7.625a.925.925 0 0 0-.937.938v2.5h-2.5a.925.925 0 0 0-.938.937c0 .547.39.938.938.938h2.5z"/>
  </mask>
  <g mask="url(#a)">
    <path d="M0 0h24v24H0z"/>
  </g>
</svg>
